; generated by PrusaSlicer 2.2.0+win64 on 2020-07-13 at 13:50:31 UTC

; 

; external perimeters extrusion width = 0.45mm
; perimeters extrusion width = 0.45mm
; infill extrusion width = 0.45mm
; solid infill extrusion width = 0.45mm
; top infill extrusion width = 0.45mm
; first layer extrusion width = 0.48mm

M107
G28
; set and wait on hot end temperature
M104 S160 T0
M109 S160 T0
; set and wait on bed temperature
M140 S50
M190 S50
; set and wait on hot end temperature
M104 S200 T0
M109 S200 T0
; home axes, probe/adjust z-offset, and pause 4s
 G29 P0
G0 X0 Y0 Z60 F3600
G4 S4
; extrude a strip outside of the perimeter
G92 E0
G1 X-54 Y0 Z0.32 F2700
G3 X0 Y-54 I54 E20 F900
G92 E0
G21 ; set units to millimeters
G90 ; use absolute coordinates
M82 ; use absolute distances for extrusion
G92 E0
M900 K200
G1 E-4.00000 F4800.00000
G92 E0
G1 Z0.200 F7200.000
G1 Z0.400
G1 X-19.245 Y-34.760
G1 Z0.200
G1 E4.00000 F4800.00000
G1 F1200.000
G1 X-18.536 Y-34.369 E4.02944
G1 X30.562 Y5.164 E6.32035
G1 X31.000 Y5.624 E6.34341
G1 X31.342 Y6.286 E6.37050
G1 X31.467 Y7.017 E6.39744
G1 X31.467 Y32.506 E7.32382
G1 X31.393 Y33.059 E7.34410
G1 X31.193 Y33.584 E7.36452
G1 X30.878 Y34.049 E7.38494
G1 X30.465 Y34.430 E7.40536
G1 X29.813 Y34.768 E7.43203
G1 X29.087 Y34.896 E7.45883
G1 X10.431 Y34.896 E8.13686
G1 X9.878 Y34.819 E8.15714
G1 X9.358 Y34.618 E8.17742
G1 X8.896 Y34.305 E8.19770
G1 X8.518 Y33.894 E8.21798
G1 X-31.023 Y-22.076 E10.70856
G1 X-31.282 Y-22.545 E10.72800
G1 X-31.430 Y-23.051 E10.74716
G1 X-31.466 Y-23.577 E10.76633
G1 X-31.388 Y-24.099 E10.78550
G1 X-31.199 Y-24.591 E10.80466
G1 X-28.472 Y-28.036 E10.96434
G1 X-24.508 Y-31.986 E11.16773
G1 X-21.382 Y-34.501 E11.31355
G1 X-20.743 Y-34.796 E11.33911
G1 X-20.047 Y-34.897 E11.36467
G1 X-19.304 Y-34.770 E11.39207
G1 E8.19207 F4800.00000
G1 F5760.000
G1 X-18.536 Y-34.369 E7.50577
G1 X-18.463 Y-34.310 E7.43207
G1 E7.39207 F4800.00000
G92 E0
G1 Z0.400 F7200.000
G1 X-20.098 Y-31.550
G1 Z0.200
G1 E4.00000 F4800.00000
G1 F1200.000
G1 X19.189 Y7.737 E6.01923
G1 X27.592 Y7.737 E6.32463
G1 X27.592 Y31.783 E7.19853
G1 X11.166 Y31.783 E7.79550
G1 X11.166 Y15.760 E8.37784
G1 X-28.121 Y-23.527 E10.39707
G1 X-26.165 Y-25.943 E10.51005
G1 X-25.447 Y-26.661 E10.54695
G1 X-14.889 Y-16.103 E11.08961
G1 X-12.674 Y-18.318 E11.20344
G1 X-23.232 Y-28.876 E11.74610
G1 X-22.514 Y-29.594 E11.78300
G1 X-20.145 Y-31.512 E11.89380
G1 E8.69380 F4800.00000
G1 F5760.000
G1 X-19.465 Y-30.834 E7.93380
G1 E7.89380 F4800.00000
G92 E0
G1 Z0.400 F7200.000
G1 X28.029 Y8.090
G1 Z0.200
G1 E4.00000 F4800.00000
G1 F1200.000
G1 X28.029 Y31.430 E4.84825
G1 X28.791 Y31.430 E4.87595
G1 X28.791 Y32.220 E4.90466
G1 X10.729 Y32.220 E5.56109
G1 X10.729 Y15.941 E6.15273
G1 X-28.708 Y-23.496 E8.17968
G1 X-26.490 Y-26.236 E8.30780
G1 X-25.447 Y-27.279 E8.36141
G1 X-14.889 Y-16.721 E8.90407
G1 X-13.292 Y-18.318 E8.98614
G1 X-23.850 Y-28.876 E9.52880
G1 X-22.807 Y-29.919 E9.58241
G1 X-20.067 Y-32.137 E9.71053
G1 X19.370 Y7.300 E11.73748
G1 X28.791 Y7.300 E12.07988
G1 X28.791 Y8.090 E12.10859
G1 X28.089 Y8.090 E12.13410
G1 X27.643 Y8.196 F7200.000
G1 X27.810 Y7.695
G1 F1200.000
G1 X28.572 Y7.695 E12.15647
G1 X27.570 Y8.649 F7200.000
G1 F1200.000
G1 X26.876 Y7.955 E12.19238
G1 X26.254 Y7.955 E12.21517
G1 X27.373 Y9.075 E12.27314
G1 X27.373 Y9.698 E12.29593
G1 X25.631 Y7.955 E12.38613
G1 X25.008 Y7.955 E12.40893
G1 X27.373 Y10.320 E12.53136
G1 X27.373 Y10.943 E12.55416
G1 X24.386 Y7.955 E12.70883
G1 X23.763 Y7.955 E12.73162
G1 X27.373 Y11.566 E12.91853
G1 X27.373 Y12.188 E12.94133
G1 X23.140 Y7.955 E13.16047
G1 X22.518 Y7.955 E13.18326
G1 X27.373 Y12.811 E13.43464
G1 X27.373 Y13.433 E13.45744
G1 X21.895 Y7.955 E13.74105
G1 X21.272 Y7.955 E13.76385
G1 X27.373 Y14.056 E14.07970
G1 X27.373 Y14.679 E14.10250
G1 X20.650 Y7.955 E14.45058
G1 X20.027 Y7.955 E14.47338
G1 X27.373 Y15.301 E14.85370
G1 X27.373 Y15.924 E14.87650
G1 X19.405 Y7.955 E15.28906
G1 X19.098 Y7.955 E15.30027
G1 X-20.114 Y-31.256 E17.33037
G1 X-20.288 Y-31.115 E17.33861
G1 X27.373 Y16.547 E19.80618
G1 X27.373 Y17.169 E19.82897
G1 X-20.632 Y-30.836 E22.31435
G1 X-20.976 Y-30.558 E22.33056
G1 X27.373 Y17.792 E24.83375
G1 X27.373 Y18.415 E24.85655
G1 X-21.320 Y-30.279 E27.37755
G1 X-21.664 Y-30.000 E27.39376
G1 X27.373 Y19.037 E29.93258
G1 X27.373 Y19.660 E29.95537
G1 X-22.008 Y-29.722 E32.51200
G1 X-22.353 Y-29.443 E32.52821
G1 X27.373 Y20.283 E35.10265
G1 X27.373 Y20.905 E35.12544
G1 X-22.665 Y-29.133 E37.71608
G1 X-22.923 Y-28.876 E37.72941
G1 X-12.365 Y-18.318 E38.27604
G1 X-12.418 Y-18.264 E38.27882
G1 X27.373 Y21.528 E40.33895
G1 X27.373 Y22.150 E40.36174
G1 X-12.730 Y-17.953 E42.43799
G1 X-13.041 Y-17.641 E42.45411
G1 X27.373 Y22.773 E44.54647
G1 X27.373 Y23.396 E44.56927
G1 X-13.352 Y-17.330 E46.67775
G1 X-13.664 Y-17.019 E46.69387
G1 X27.373 Y24.018 E48.81847
G1 X27.373 Y24.641 E48.84126
G1 X-13.975 Y-16.707 E50.98198
G1 X-14.286 Y-16.396 E50.99810
G1 X27.373 Y25.264 E53.15493
G1 X27.373 Y25.886 E53.17773
G1 X-14.598 Y-16.085 E55.35068
G1 X-14.889 Y-15.794 E55.36574
G1 X-25.447 Y-26.352 E55.91237
G1 X-25.467 Y-26.331 E55.91343
G1 X27.373 Y26.509 E58.64912
G1 X27.373 Y27.132 E58.67192
G1 X-25.778 Y-26.020 E61.42373
G1 X-26.081 Y-25.699 E61.43986
G1 X27.373 Y27.754 E64.20731
G1 X27.373 Y28.377 E64.23010
G1 X-26.359 Y-25.355 E67.01198
G1 X-26.638 Y-25.011 E67.02819
G1 X27.373 Y29.000 E69.82449
G1 X27.373 Y29.622 E69.84728
G1 X-26.916 Y-24.667 E72.65801
G1 X-27.195 Y-24.323 E72.67421
G1 X27.373 Y30.245 E75.49936
G1 X27.373 Y30.867 E75.52216
G1 X-27.474 Y-23.979 E78.36173
G1 X-27.752 Y-23.635 E78.37794
G1 X27.373 Y31.490 E81.23194
G1 X27.373 Y31.564 E81.23465
G1 X26.825 Y31.564 E81.25473
G1 X11.384 Y16.124 E82.05412
G1 X11.384 Y16.747 E82.07691
G1 X26.202 Y31.564 E82.84406
G1 X25.579 Y31.564 E82.86685
G1 X11.384 Y17.369 E83.60177
G1 X11.384 Y17.992 E83.62456
G1 X24.957 Y31.564 E84.32724
G1 X24.334 Y31.564 E84.35003
G1 X11.384 Y18.615 E85.02047
G1 X11.384 Y19.237 E85.04327
G1 X23.711 Y31.564 E85.68147
G1 X23.089 Y31.564 E85.70427
G1 X11.384 Y19.860 E86.31024
G1 X11.384 Y20.482 E86.33303
G1 X22.466 Y31.564 E86.90677
G1 X21.844 Y31.564 E86.92956
G1 X11.384 Y21.105 E87.47106
G1 X11.384 Y21.728 E87.49385
G1 X21.221 Y31.564 E88.00311
G1 X20.598 Y31.564 E88.02591
G1 X11.384 Y22.350 E88.50293
G1 X11.384 Y22.973 E88.52573
G1 X19.976 Y31.564 E88.97052
G1 X19.353 Y31.564 E88.99331
G1 X11.384 Y23.596 E89.40587
G1 X11.384 Y24.218 E89.42866
G1 X18.730 Y31.564 E89.80898
G1 X18.108 Y31.564 E89.83177
G1 X11.384 Y24.841 E90.17985
G1 X11.384 Y25.464 E90.20265
G1 X17.485 Y31.564 E90.51850
G1 X16.862 Y31.564 E90.54129
G1 X11.384 Y26.086 E90.82490
G1 X11.384 Y26.709 E90.84769
G1 X16.240 Y31.564 E91.09907
G1 X15.617 Y31.564 E91.12186
G1 X11.384 Y27.331 E91.34100
G1 X11.384 Y27.954 E91.36380
G1 X14.994 Y31.564 E91.55070
G1 X14.372 Y31.564 E91.57349
G1 X11.384 Y28.577 E91.72816
G1 X11.384 Y29.199 E91.75095
G1 X13.749 Y31.564 E91.87338
G1 X13.127 Y31.564 E91.89618
G1 X11.384 Y29.822 E91.98637
G1 X11.384 Y30.445 E92.00917
G1 X12.504 Y31.564 E92.06713
G1 X11.881 Y31.564 E92.08992
G1 X11.188 Y30.871 E92.12583
G1 E88.92583 F4800.00000
G1 F5760.000
G1 X11.867 Y31.549 E88.16583
G1 E88.12583 F4800.00000
G92 E0
G1 Z0.400 F7200.000
G1 X27.810 Y31.825
G1 Z0.200
G1 E4.00000 F4800.00000
G1 F1200.000
G1 X28.572 Y31.825 E4.02236
M106 S255
G1 E0.82236 F4800.00000
G1 F5760.000
G1 X27.810 Y31.825 E0.21912
G1 E0.02236 F4800.00000
G92 E0
G1 Z0.400 F7200.000
G1 Z0.600
G1 X29.813 Y34.768
G1 Z0.400
G1 E4.00000 F4800.00000
G1 F3600.000
G1 X29.087 Y34.896 E4.02681
G1 X10.431 Y34.896 E4.70483
G1 X9.878 Y34.819 E4.72511
G1 X9.358 Y34.618 E4.74539
G1 X8.896 Y34.305 E4.76567
G1 X8.518 Y33.894 E4.78595
G1 X-31.023 Y-22.076 E7.27653
G1 X-31.282 Y-22.545 E7.29597
G1 X-31.430 Y-23.051 E7.31514
G1 X-31.466 Y-23.577 E7.33430
G1 X-31.388 Y-24.099 E7.35347
G1 X-31.199 Y-24.591 E7.37264
G1 X-28.472 Y-28.036 E7.53231
G1 X-24.508 Y-31.986 E7.73571
G1 X-21.382 Y-34.501 E7.88153
G1 X-20.743 Y-34.796 E7.90709
G1 X-20.047 Y-34.897 E7.93265
G1 X-19.245 Y-34.760 E7.96222
G1 X-18.536 Y-34.369 E7.99166
G1 X30.562 Y5.164 E10.28257
G1 X31.000 Y5.624 E10.30563
G1 X31.342 Y6.286 E10.33272
G1 X31.467 Y7.017 E10.35967
G1 X31.467 Y32.506 E11.28604
G1 X31.393 Y33.059 E11.30632
G1 X31.193 Y33.584 E11.32674
G1 X30.878 Y34.049 E11.34716
G1 X30.465 Y34.430 E11.36758
G1 X29.867 Y34.740 E11.39207
G1 E8.19207 F4800.00000
G1 F5760.000
G1 X29.087 Y34.896 E7.56260
G1 X28.922 Y34.896 E7.43207
G1 E7.39207 F4800.00000
G92 E0
G1 Z0.600 F7200.000
G1 X27.637 Y31.828
G1 Z0.400
G1 E4.00000 F4800.00000
G1 F3600.000
G1 X11.121 Y31.828 E4.55904
G1 X11.121 Y15.778 E5.10230
G1 X-28.181 Y-23.524 E6.98368
G1 X-26.198 Y-25.973 E7.09035
G1 X-25.447 Y-26.725 E7.12632
G1 X-14.889 Y-16.166 E7.63173
G1 X-12.737 Y-18.318 E7.73471
G1 X-23.296 Y-28.876 E8.24012
G1 X-22.544 Y-29.627 E8.27609
G1 X-20.095 Y-31.610 E8.38276
G1 X19.207 Y7.692 E10.26414
G1 X27.637 Y7.692 E10.54947
G1 X27.637 Y31.768 E11.36441
G1 X28.044 Y8.105 F7200.000
G1 F1800.000
G1 X28.044 Y31.415 E12.15342
G1 X28.806 Y31.415 E12.17922
G1 X28.806 Y32.235 E12.20697
G1 X10.714 Y32.235 E12.81937
G1 X10.714 Y15.947 E13.37069
G1 X-28.728 Y-23.495 E15.25877
G1 X-26.501 Y-26.246 E15.37857
G1 X-25.447 Y-27.300 E15.42904
G1 X-14.889 Y-16.742 E15.93446
G1 X-13.313 Y-18.318 E16.00987
G1 X-23.871 Y-28.876 E16.51529
G1 X-22.817 Y-29.930 E16.56576
G1 X-20.066 Y-32.157 E16.68556
G1 X19.376 Y7.285 E18.57364
G1 X28.806 Y7.285 E18.89283
G1 X28.806 Y8.105 E18.92059
G1 X28.104 Y8.105 E18.94435
G1 X27.659 Y8.213 F7200.000
G1 X26.789 Y31.807
G1 F1800.000
G1 X27.433 Y31.164 E18.97531
G1 X27.433 Y30.585 E18.99499
G1 X26.394 Y31.624 E19.04496
G1 X25.816 Y31.624 E19.06463
G1 X27.433 Y30.007 E19.14243
G1 X27.433 Y29.428 E19.16210
G1 X25.237 Y31.624 E19.26771
G1 X24.659 Y31.624 E19.28738
G1 X27.433 Y28.850 E19.42082
G1 X27.433 Y28.271 E19.44049
G1 X24.080 Y31.624 E19.60174
G1 X23.502 Y31.624 E19.62141
G1 X27.433 Y27.693 E19.81049
G1 X27.433 Y27.115 E19.83016
G1 X22.924 Y31.624 E20.04705
G1 X22.345 Y31.624 E20.06673
G1 X27.433 Y26.536 E20.31144
G1 X27.433 Y25.958 E20.33111
G1 X21.767 Y31.624 E20.60364
G1 X21.188 Y31.624 E20.62332
G1 X27.433 Y25.379 E20.92367
G1 X27.433 Y24.801 E20.94334
G1 X20.610 Y31.624 E21.27151
G1 X20.031 Y31.624 E21.29119
G1 X27.433 Y24.222 E21.64718
G1 X27.433 Y23.644 E21.66685
G1 X19.453 Y31.624 E22.05066
G1 X18.875 Y31.624 E22.07034
G1 X27.433 Y23.066 E22.48197
G1 X27.433 Y22.487 E22.50164
G1 X18.296 Y31.624 E22.94109
G1 X17.718 Y31.624 E22.96076
G1 X27.433 Y21.909 E23.42804
G1 X27.433 Y21.330 E23.44771
G1 X17.139 Y31.624 E23.94280
G1 X16.561 Y31.624 E23.96247
G1 X27.433 Y20.752 E24.48539
G1 X27.433 Y20.174 E24.50506
G1 X15.983 Y31.624 E25.05579
G1 X15.404 Y31.624 E25.07546
G1 X27.433 Y19.595 E25.65401
G1 X27.433 Y19.017 E25.67369
G1 X14.826 Y31.624 E26.28006
G1 X14.247 Y31.624 E26.29973
G1 X27.433 Y18.438 E26.93392
G1 X27.433 Y17.860 E26.95359
G1 X13.669 Y31.624 E27.61561
G1 X13.090 Y31.624 E27.63528
G1 X27.433 Y17.281 E28.32511
G1 X27.433 Y16.703 E28.34478
G1 X12.512 Y31.624 E29.06243
G1 X11.934 Y31.624 E29.08211
G1 X27.433 Y16.125 E29.82758
G1 X27.433 Y15.546 E29.84725
G1 X11.355 Y31.624 E30.62054
G1 X11.324 Y31.624 E30.62158
G1 X11.324 Y31.076 E30.64021
G1 X27.433 Y14.968 E31.41498
G1 X27.433 Y14.389 E31.43465
G1 X11.324 Y30.498 E32.20942
G1 X11.324 Y29.920 E32.22909
G1 X27.433 Y13.811 E33.00386
G1 X27.433 Y13.232 E33.02353
G1 X11.324 Y29.341 E33.79830
G1 X11.324 Y28.763 E33.81797
G1 X27.433 Y12.654 E34.59274
G1 X27.433 Y12.076 E34.61241
G1 X11.324 Y28.184 E35.38718
G1 X11.324 Y27.606 E35.40685
G1 X27.433 Y11.497 E36.18162
G1 X27.433 Y10.919 E36.20129
G1 X11.324 Y27.028 E36.97606
G1 X11.324 Y26.449 E36.99573
G1 X27.433 Y10.340 E37.77050
G1 X27.433 Y9.762 E37.79017
G1 X11.324 Y25.871 E38.56494
G1 X11.324 Y25.292 E38.58461
G1 X27.433 Y9.183 E39.35938
G1 X27.433 Y8.605 E39.37905
G1 X11.324 Y24.714 E40.15382
G1 X11.324 Y24.135 E40.17349
G1 X27.433 Y8.027 E40.94826
G1 X27.433 Y7.895 E40.95273
G1 X26.986 Y7.895 E40.96793
G1 X11.324 Y23.557 E41.72119
G1 X11.324 Y22.979 E41.74087
G1 X26.408 Y7.895 E42.46631
G1 X25.829 Y7.895 E42.48598
G1 X11.324 Y22.400 E43.18360
G1 X11.324 Y21.822 E43.20327
G1 X25.251 Y7.895 E43.87307
G1 X24.672 Y7.895 E43.89274
G1 X11.324 Y21.243 E44.53472
G1 X11.324 Y20.665 E44.55439
G1 X24.094 Y7.895 E45.16855
G1 X23.515 Y7.895 E45.18822
G1 X11.324 Y20.086 E45.77456
G1 X11.324 Y19.508 E45.79423
G1 X22.937 Y7.895 E46.35275
G1 X22.359 Y7.895 E46.37243
G1 X11.324 Y18.930 E46.90313
G1 X11.324 Y18.351 E46.92280
G1 X21.780 Y7.895 E47.42568
G1 X21.202 Y7.895 E47.44535
G1 X11.324 Y17.773 E47.92041
G1 X11.324 Y17.194 E47.94008
G1 X20.623 Y7.895 E48.38732
G1 X20.045 Y7.895 E48.40699
G1 X11.324 Y16.616 E48.82641
G1 X11.324 Y16.037 E48.84609
G1 X19.466 Y7.895 E49.23769
G1 X19.123 Y7.895 E49.24937
G1 X19.005 Y7.778 E49.25502
G1 X11.207 Y15.576 E49.63010
G1 X10.918 Y15.287 E49.64401
G1 X18.716 Y7.489 E50.01908
G1 X18.427 Y7.200 E50.03299
G1 X10.629 Y14.998 E50.40807
G1 X10.339 Y14.709 E50.42198
G1 X18.138 Y6.910 E50.79706
G1 X17.849 Y6.621 E50.81097
G1 X10.050 Y14.420 E51.18605
G1 X9.761 Y14.130 E51.19996
G1 X17.559 Y6.332 E51.57504
G1 X17.270 Y6.043 E51.58895
G1 X9.472 Y13.841 E51.96403
G1 X9.182 Y13.552 E51.97794
G1 X16.981 Y5.753 E52.35302
G1 X16.692 Y5.464 E52.36693
G1 X8.893 Y13.263 E52.74200
G1 X8.604 Y12.974 E52.75591
G1 X16.403 Y5.175 E53.13099
G1 X16.113 Y4.886 E53.14490
G1 X8.315 Y12.684 E53.51998
G1 X8.026 Y12.395 E53.53389
G1 X15.824 Y4.597 E53.90897
G1 X15.535 Y4.307 E53.92288
G1 X7.736 Y12.106 E54.29796
G1 X7.447 Y11.817 E54.31187
G1 X15.246 Y4.018 E54.68695
G1 X14.957 Y3.729 E54.70086
G1 X7.158 Y11.528 E55.07593
G1 X6.869 Y11.238 E55.08984
G1 X14.667 Y3.440 E55.46492
G1 X14.378 Y3.151 E55.47883
G1 X6.580 Y10.949 E55.85391
G1 X6.290 Y10.660 E55.86782
G1 X14.089 Y2.861 E56.24290
G1 X13.800 Y2.572 E56.25681
G1 X6.001 Y10.371 E56.63189
G1 X5.712 Y10.081 E56.64580
G1 X13.510 Y2.283 E57.02088
G1 X13.221 Y1.994 E57.03479
G1 X5.423 Y9.792 E57.40987
G1 X5.134 Y9.503 E57.42378
G1 X12.932 Y1.705 E57.79885
G1 X12.643 Y1.415 E57.81276
G1 X4.844 Y9.214 E58.18784
G1 X4.555 Y8.925 E58.20175
G1 X12.354 Y1.126 E58.57683
G1 X12.064 Y0.837 E58.59074
G1 X4.266 Y8.635 E58.96582
G1 X3.977 Y8.346 E58.97973
G1 X11.775 Y0.548 E59.35481
G1 X11.486 Y0.258 E59.36872
G1 X3.687 Y8.057 E59.74380
G1 X3.398 Y7.768 E59.75771
G1 X11.197 Y-0.031 E60.13279
G1 X10.908 Y-0.320 E60.14670
G1 X3.109 Y7.479 E60.52177
G1 X2.820 Y7.189 E60.53568
G1 X10.618 Y-0.609 E60.91076
G1 X10.329 Y-0.898 E60.92467
G1 X2.531 Y6.900 E61.29975
G1 X2.241 Y6.611 E61.31366
G1 X10.040 Y-1.188 E61.68874
G1 X9.751 Y-1.477 E61.70265
G1 X1.952 Y6.322 E62.07773
G1 X1.663 Y6.033 E62.09164
G1 X9.462 Y-1.766 E62.46672
G1 X9.172 Y-2.055 E62.48063
G1 X1.374 Y5.743 E62.85571
G1 X1.085 Y5.454 E62.86962
G1 X8.883 Y-2.344 E63.24470
G1 X8.594 Y-2.634 E63.25861
G1 X0.795 Y5.165 E63.63368
G1 X0.506 Y4.876 E63.64759
G1 X8.305 Y-2.923 E64.02267
G1 X8.015 Y-3.212 E64.03658
G1 X0.217 Y4.586 E64.41166
G1 X-0.072 Y4.297 E64.42557
G1 X7.726 Y-3.501 E64.80065
G1 X7.437 Y-3.791 E64.81456
G1 X-0.362 Y4.008 E65.18964
G1 X-0.651 Y3.719 E65.20355
G1 X7.148 Y-4.080 E65.57863
G1 X6.859 Y-4.369 E65.59254
G1 X-0.940 Y3.430 E65.96762
G1 X-1.229 Y3.140 E65.98153
G1 X6.569 Y-4.658 E66.35661
G1 X6.280 Y-4.947 E66.37052
G1 X-1.518 Y2.851 E66.74559
G1 X-1.808 Y2.562 E66.75950
G1 X5.991 Y-5.237 E67.13458
G1 X5.702 Y-5.526 E67.14849
G1 X-2.097 Y2.273 E67.52357
G1 X-2.386 Y1.984 E67.53748
G1 X5.413 Y-5.815 E67.91256
G1 X5.123 Y-6.104 E67.92647
G1 X-2.675 Y1.694 E68.30155
G1 X-2.964 Y1.405 E68.31546
G1 X4.834 Y-6.393 E68.69054
G1 X4.545 Y-6.683 E68.70445
G1 X-3.254 Y1.116 E69.07953
G1 X-3.543 Y0.827 E69.09344
G1 X4.256 Y-6.972 E69.46852
G1 X3.966 Y-7.261 E69.48243
G1 X-3.832 Y0.537 E69.85751
G1 X-4.121 Y0.248 E69.87142
G1 X3.677 Y-7.550 E70.24650
G1 X3.388 Y-7.839 E70.26041
G1 X-4.410 Y-0.041 E70.63548
G1 X-4.700 Y-0.330 E70.64939
G1 X3.099 Y-8.129 E71.02447
G1 X2.810 Y-8.418 E71.03838
G1 X-4.989 Y-0.619 E71.41346
G1 X-5.278 Y-0.909 E71.42737
G1 X2.520 Y-8.707 E71.80245
