; generated by PrusaSlicer 2.2.0+win64 on 2020-07-12 at 17:07:34 UTC

; 

; external perimeters extrusion width = 0.45mm
; perimeters extrusion width = 0.45mm
; infill extrusion width = 0.45mm
; solid infill extrusion width = 0.45mm
; top infill extrusion width = 0.45mm
; first layer extrusion width = 0.48mm

M107
G28
; set and wait on hot end temperature
M104 S160 T0
M109 S160 T0
; set and wait on bed temperature
M140 S50
M190 S50
; set and wait on hot end temperature
M104 S200 T0
M109 S200 T0
; home axes, probe/adjust z-offset, and pause 4s
 G29 P0
G0 X0 Y0 Z60 F3600
G4 S4
; extrude a strip outside of the perimeter
G92 E0
G1 X-54 Y0 Z0.32 F2700
G3 X0 Y-54 I54 E20 F900
G92 E0
G21 ; set units to millimeters
G90 ; use absolute coordinates
M82 ; use absolute distances for extrusion
G92 E0
M900 K200
G1 E-4.00000 F4800.00000
G92 E0
G1 Z0.200 F7200.000
G1 Z0.400
G1 X34.744 Y6.211
G1 Z0.200
G1 E4.00000 F4800.00000
G1 F1200.000
G1 X34.896 Y7.010 E4.02958
G1 X34.897 Y32.487 E4.95549
G1 X34.834 Y33.010 E4.97466
G1 X34.660 Y33.508 E4.99382
G1 X34.383 Y33.957 E5.01299
G1 X34.016 Y34.336 E5.03215
G1 X33.311 Y34.743 E5.06173
G1 X32.512 Y34.896 E5.09130
G1 X7.033 Y34.897 E6.01731
G1 X6.509 Y34.834 E6.03647
G1 X6.011 Y34.660 E6.05564
G1 X5.563 Y34.383 E6.07481
G1 X5.184 Y34.016 E6.09397
G1 X-34.450 Y-22.073 E8.59001
G1 X-34.711 Y-22.545 E8.60959
G1 X-34.859 Y-23.051 E8.62876
G1 X-34.895 Y-23.577 E8.64792
G1 X-34.817 Y-24.099 E8.66709
G1 X-34.628 Y-24.591 E8.68625
G1 X-31.901 Y-28.036 E8.84593
G1 X-27.937 Y-31.986 E9.04932
G1 X-24.811 Y-34.501 E9.19514
G1 X-24.172 Y-34.796 E9.22071
G1 X-23.476 Y-34.897 E9.24627
G1 X-22.747 Y-34.784 E9.27308
G1 X-22.085 Y-34.459 E9.29988
G1 X33.869 Y5.072 E11.78974
G1 X34.335 Y5.503 E11.81280
G1 X34.714 Y6.159 E11.84034
G1 E8.64034 F4800.00000
G1 F5760.000
G1 X34.896 Y7.010 E7.95105
G1 X34.896 Y7.099 E7.88034
G1 E7.84034 F4800.00000
G92 E0
G1 Z0.400 F7200.000
G1 X31.783 Y7.737
G1 Z0.200
G1 E4.00000 F4800.00000
G1 F1200.000
G1 X31.783 Y31.783 E4.87391
G1 X7.737 Y31.783 E5.74781
G1 X7.737 Y15.760 E6.33014
G1 X-31.550 Y-23.527 E8.34938
G1 X-29.594 Y-25.943 E8.46236
G1 X-28.876 Y-26.661 E8.49925
G1 X-18.318 Y-16.103 E9.04191
G1 X-16.103 Y-18.318 E9.15575
G1 X-26.661 Y-28.876 E9.69841
G1 X-25.943 Y-29.594 E9.73530
G1 X-23.527 Y-31.550 E9.84828
G1 X15.760 Y7.737 E11.86752
G1 X31.723 Y7.737 E12.44767
G1 E9.24767 F4800.00000
G1 F5760.000
G1 X31.725 Y8.697 E8.48767
G1 E8.44767 F4800.00000
G92 E0
G1 Z0.400 F7200.000
G1 X15.941 Y7.300
G1 Z0.200
G1 E4.00000 F4800.00000
G1 F1200.000
G1 X32.220 Y7.300 E4.59164
G1 X32.220 Y32.220 E5.49731
G1 X7.300 Y32.220 E6.40299
G1 X7.300 Y15.941 E6.99463
G1 X-32.137 Y-23.496 E9.02158
G1 X-29.919 Y-26.236 E9.14970
G1 X-28.876 Y-27.279 E9.20331
G1 X-18.318 Y-16.721 E9.74597
G1 X-16.721 Y-18.318 E9.82804
G1 X-27.279 Y-28.876 E10.37070
G1 X-26.236 Y-29.919 E10.42431
G1 X-23.496 Y-32.137 E10.55243
G1 X15.898 Y7.257 E12.57720
G1 X16.052 Y7.684 F7200.000
G1 E9.37720 F4800.00000
G1 F5760.000
G1 X16.858 Y7.260 E8.61720
G1 E8.57720 F4800.00000
G92 E0
G1 Z0.400 F7200.000
G1 X7.759 Y30.868
G1 Z0.200
G1 E4.00000 F4800.00000
G1 F1200.000
G1 X8.455 Y31.564 E4.03617
G1 X9.080 Y31.564 E4.05910
G1 X7.955 Y30.440 E4.11749
G1 X7.955 Y29.815 E4.14043
G1 X9.704 Y31.564 E4.23125
G1 X10.329 Y31.564 E4.25418
G1 X7.955 Y29.191 E4.37744
G1 X7.955 Y28.566 E4.40038
G1 X10.953 Y31.564 E4.55607
G1 X11.578 Y31.564 E4.57901
G1 X7.955 Y27.942 E4.76714
G1 X7.955 Y27.317 E4.79007
G1 X12.203 Y31.564 E5.01064
G1 X12.827 Y31.564 E5.03358
G1 X7.955 Y26.692 E5.28658
G1 X7.955 Y26.068 E5.30951
G1 X13.452 Y31.564 E5.59495
G1 X14.076 Y31.564 E5.61789
G1 X7.955 Y25.443 E5.93576
G1 X7.955 Y24.819 E5.95870
G1 X14.701 Y31.564 E6.30900
G1 X15.325 Y31.564 E6.33194
G1 X7.955 Y24.194 E6.71468
G1 X7.955 Y23.570 E6.73762
G1 X15.950 Y31.564 E7.15280
G1 X16.575 Y31.564 E7.17574
G1 X7.955 Y22.945 E7.62335
G1 X7.955 Y22.321 E7.64629
G1 X17.199 Y31.564 E8.12634
G1 X17.824 Y31.564 E8.14927
G1 X7.955 Y21.696 E8.66176
G1 X7.955 Y21.071 E8.68470
G1 X18.448 Y31.564 E9.22962
G1 X19.073 Y31.564 E9.25256
G1 X7.955 Y20.447 E9.82991
G1 X7.955 Y19.822 E9.85285
G1 X19.697 Y31.564 E10.46264
G1 X20.322 Y31.564 E10.48558
G1 X7.955 Y19.198 E11.12781
G1 X7.955 Y18.573 E11.15074
G1 X20.946 Y31.564 E11.82541
G1 X21.571 Y31.564 E11.84835
G1 X7.955 Y17.949 E12.55545
G1 X7.955 Y17.324 E12.57838
G1 X22.196 Y31.564 E13.31792
G1 X22.820 Y31.564 E13.34085
G1 X7.955 Y16.699 E14.11283
G1 X7.955 Y16.075 E14.13576
G1 X23.445 Y31.564 E14.94017
G1 X24.069 Y31.564 E14.96311
G1 X-31.158 Y-23.663 E17.83125
G1 X-30.879 Y-24.009 E17.84755
G1 X24.694 Y31.564 E20.73361
G1 X25.318 Y31.564 E20.75655
G1 X-30.599 Y-24.354 E23.66053
G1 X-30.320 Y-24.699 E23.67684
G1 X25.943 Y31.564 E26.59875
G1 X26.568 Y31.564 E26.62168
G1 X-30.040 Y-25.044 E29.56151
G1 X-29.761 Y-25.389 E29.57782
G1 X27.192 Y31.564 E32.53557
G1 X27.817 Y31.564 E32.55850
G1 X-29.482 Y-25.734 E35.53417
G1 X-29.175 Y-26.052 E35.55040
G1 X28.441 Y31.564 E38.54259
G1 X29.066 Y31.564 E38.56553
G1 X-18.305 Y-15.806 E41.02563
G1 X-17.993 Y-16.119 E41.04185
G1 X29.690 Y31.564 E43.51817
G1 X30.315 Y31.564 E43.54111
G1 X-17.680 Y-16.431 E46.03364
G1 X-17.368 Y-16.743 E46.04986
G1 X30.940 Y31.564 E48.55862
G1 X31.564 Y31.564 E48.58155
G1 X-17.056 Y-17.056 E51.10653
G1 X-16.743 Y-17.368 E51.12274
G1 X31.564 Y30.940 E53.63150
G1 X31.564 Y30.315 E53.65444
G1 X-16.431 Y-17.680 E56.14698
G1 X-16.119 Y-17.992 E56.16320
G1 X31.564 Y29.691 E58.63952
G1 X31.564 Y29.066 E58.66246
G1 X-15.807 Y-18.305 E61.12256
G1 X-15.794 Y-18.318 E61.12323
G1 X-26.352 Y-28.876 E61.67154
G1 X-26.052 Y-29.175 E61.68710
G1 X31.564 Y28.441 E64.67930
G1 X31.564 Y27.817 E64.70223
G1 X-25.734 Y-29.481 E67.67791
G1 X-25.389 Y-29.761 E67.69422
G1 X31.564 Y27.192 E70.65197
G1 X31.564 Y26.568 E70.67491
G1 X-25.044 Y-30.040 E73.61474
G1 X-24.699 Y-30.320 E73.63104
G1 X31.564 Y25.943 E76.55295
G1 X31.564 Y25.319 E76.57589
G1 X-24.354 Y-30.599 E79.47988
G1 X-24.009 Y-30.879 E79.49618
G1 X31.564 Y24.694 E82.38225
G1 X31.564 Y24.069 E82.40518
G1 X-23.664 Y-31.158 E85.27333
G1 X-23.543 Y-31.256 E85.27904
G1 X15.669 Y7.955 E87.31542
G1 X16.075 Y7.955 E87.33032
G1 X31.564 Y23.445 E88.13473
G1 X31.564 Y22.820 E88.15767
G1 X16.699 Y7.955 E88.92965
G1 X17.324 Y7.955 E88.95258
G1 X31.564 Y22.196 E89.69213
G1 X31.564 Y21.571 E89.71506
G1 X17.948 Y7.955 E90.42217
G1 X18.573 Y7.955 E90.44511
G1 X31.564 Y20.947 E91.11978
G1 X31.564 Y20.322 E91.14271
G1 X19.198 Y7.955 E91.78495
G1 X19.822 Y7.955 E91.80789
G1 X31.564 Y19.697 E92.41769
G1 X31.564 Y19.073 E92.44062
G1 X20.447 Y7.955 E93.01799
G1 X21.071 Y7.955 E93.04092
G1 X31.564 Y18.448 E93.58585
G1 X31.564 Y17.824 E93.60879
G1 X21.696 Y7.955 E94.12128
G1 X22.320 Y7.955 E94.14422
G1 X31.564 Y17.199 E94.62427
G1 X31.564 Y16.575 E94.64721
G1 X22.945 Y7.955 E95.09483
G1 X23.570 Y7.955 E95.11777
G1 X31.564 Y15.950 E95.53295
G1 X31.564 Y15.325 E95.55589
G1 X24.194 Y7.955 E95.93864
G1 X24.819 Y7.955 E95.96157
G1 X31.564 Y14.701 E96.31189
G1 X31.564 Y14.076 E96.33483
G1 X25.443 Y7.955 E96.65271
G1 X26.068 Y7.955 E96.67564
G1 X31.564 Y13.452 E96.96108
G1 X31.564 Y12.827 E96.98402
G1 X26.692 Y7.955 E97.23703
G1 X27.317 Y7.955 E97.25996
G1 X31.564 Y12.203 E97.48054
G1 X31.564 Y11.578 E97.50347
G1 X27.942 Y7.955 E97.69161
G1 X28.566 Y7.955 E97.71454
G1 X31.564 Y10.954 E97.87024
G1 X31.564 Y10.329 E97.89318
G1 X29.191 Y7.955 E98.01645
G1 X29.815 Y7.955 E98.03938
G1 X31.564 Y9.704 E98.13021
G1 X31.564 Y9.080 E98.15315
G1 X30.440 Y7.955 E98.21154
G1 X31.064 Y7.955 E98.23448
G1 X31.761 Y8.652 E98.27065
M106 S255
G1 E95.07065 F4800.00000
G1 F5760.000
G1 X31.082 Y7.973 E94.31065
G1 E94.27065 F4800.00000
G92 E0
G1 Z0.400 F7200.000
G1 Z0.600
G1 X34.744 Y6.211
G1 Z0.400
G1 E4.00000 F4800.00000
G1 F3600.000
G1 X34.896 Y7.010 E4.02958
G1 X34.897 Y32.487 E4.95549
G1 X34.834 Y33.010 E4.97466
G1 X34.660 Y33.508 E4.99382
G1 X34.383 Y33.957 E5.01299
G1 X34.016 Y34.336 E5.03215
G1 X33.311 Y34.743 E5.06173
G1 X32.512 Y34.896 E5.09130
G1 X7.033 Y34.897 E6.01731
G1 X6.509 Y34.834 E6.03647
G1 X6.011 Y34.660 E6.05564
G1 X5.563 Y34.383 E6.07481
G1 X5.184 Y34.016 E6.09397
G1 X-34.450 Y-22.073 E8.59001
G1 X-34.711 Y-22.545 E8.60959
G1 X-34.859 Y-23.051 E8.62876
G1 X-34.895 Y-23.577 E8.64792
G1 X-34.817 Y-24.099 E8.66709
G1 X-34.628 Y-24.591 E8.68625
G1 X-31.901 Y-28.036 E8.84593
G1 X-27.937 Y-31.986 E9.04932
G1 X-24.811 Y-34.501 E9.19514
G1 X-24.172 Y-34.796 E9.22071
G1 X-23.476 Y-34.897 E9.24627
G1 X-22.747 Y-34.784 E9.27308
G1 X-22.085 Y-34.459 E9.29988
G1 X33.869 Y5.072 E11.78974
G1 X34.335 Y5.503 E11.81280
G1 X34.714 Y6.159 E11.84034
G1 E8.64034 F4800.00000
G1 F5760.000
G1 X34.896 Y7.010 E7.95105
G1 X34.896 Y7.099 E7.88034
G1 E7.84034 F4800.00000
G92 E0
G1 Z0.600 F7200.000
G1 X31.828 Y7.692
G1 Z0.400
G1 E4.00000 F4800.00000
G1 F3600.000
G1 X31.828 Y31.828 E4.81697
G1 X7.692 Y31.828 E5.63394
G1 X7.692 Y15.778 E6.17719
G1 X-31.610 Y-23.524 E8.05857
G1 X-29.627 Y-25.973 E8.16525
G1 X-28.876 Y-26.725 E8.20122
G1 X-18.318 Y-16.166 E8.70663
G1 X-16.166 Y-18.318 E8.80961
G1 X-26.725 Y-28.876 E9.31502
G1 X-25.973 Y-29.627 E9.35099
G1 X-23.524 Y-31.610 E9.45766
G1 X15.778 Y7.692 E11.33904
G1 X31.768 Y7.692 E11.88026
G1 X15.947 Y7.285 F7200.000
G1 F1800.000
G1 X32.235 Y7.285 E12.43159
G1 X32.235 Y32.235 E13.27612
G1 X7.285 Y32.235 E14.12065
G1 X7.285 Y15.947 E14.67197
G1 X-32.157 Y-23.495 E16.56005
G1 X-29.930 Y-26.246 E16.67986
G1 X-28.876 Y-27.300 E16.73033
G1 X-18.318 Y-16.742 E17.23574
G1 X-16.742 Y-18.318 E17.31116
G1 X-27.300 Y-28.876 E17.81657
G1 X-26.246 Y-29.930 E17.86704
G1 X-23.495 Y-32.157 E17.98684
G1 X15.904 Y7.242 E19.87289
G1 X16.058 Y7.669 F7200.000
G1 X30.984 Y31.807
G1 F1800.000
G1 X31.624 Y31.167 E19.90357
G1 X31.624 Y30.591 E19.92308
G1 X30.591 Y31.624 E19.97258
G1 X30.015 Y31.624 E19.99209
G1 X31.624 Y30.015 E20.06919
G1 X31.624 Y29.439 E20.08870
G1 X29.439 Y31.624 E20.19340
G1 X28.863 Y31.624 E20.21291
G1 X31.624 Y28.863 E20.34521
G1 X31.624 Y28.286 E20.36472
G1 X28.286 Y31.624 E20.52461
G1 X27.710 Y31.624 E20.54413
G1 X31.624 Y27.710 E20.73162
G1 X31.624 Y27.134 E20.75113
G1 X27.134 Y31.624 E20.96622
G1 X26.558 Y31.624 E20.98573
G1 X31.624 Y26.558 E21.22842
G1 X31.624 Y25.982 E21.24793
G1 X25.982 Y31.624 E21.51822
G1 X25.406 Y31.624 E21.53773
G1 X31.624 Y25.406 E21.83562
G1 X31.624 Y24.830 E21.85513
G1 X24.830 Y31.624 E22.18061
G1 X24.254 Y31.624 E22.20013
G1 X31.624 Y24.254 E22.55320
G1 X31.624 Y23.678 E22.57272
G1 X23.678 Y31.624 E22.95339
G1 X23.101 Y31.624 E22.97291
G1 X31.624 Y23.101 E23.38118
G1 X31.624 Y22.525 E23.40070
G1 X22.525 Y31.624 E23.83657
G1 X21.949 Y31.624 E23.85609
G1 X31.624 Y21.949 E24.31956
G1 X31.624 Y21.373 E24.33907
G1 X21.373 Y31.624 E24.83014
G1 X20.797 Y31.624 E24.84966
G1 X31.624 Y20.797 E25.36832
G1 X31.624 Y20.221 E25.38784
G1 X20.221 Y31.624 E25.93411
G1 X19.645 Y31.624 E25.95362
G1 X31.624 Y19.645 E26.52748
G1 X31.624 Y19.069 E26.54700
G1 X19.069 Y31.624 E27.14846
G1 X18.493 Y31.624 E27.16798
G1 X31.624 Y18.493 E27.79704
G1 X31.624 Y17.916 E27.81655
G1 X17.916 Y31.624 E28.47321
G1 X17.340 Y31.624 E28.49272
G1 X31.624 Y17.340 E29.17698
G1 X31.624 Y16.764 E29.19650
G1 X16.764 Y31.624 E29.90835
G1 X16.188 Y31.624 E29.92787
G1 X31.624 Y16.188 E30.66732
G1 X31.624 Y15.612 E30.68683
G1 X15.612 Y31.624 E31.45388
G1 X15.036 Y31.624 E31.47340
G1 X31.624 Y15.036 E32.26805
G1 X31.624 Y14.460 E32.28756
G1 X14.460 Y31.624 E33.10981
G1 X13.884 Y31.624 E33.12933
G1 X31.624 Y13.884 E33.97917
G1 X31.624 Y13.307 E33.99869
G1 X13.307 Y31.624 E34.87613
G1 X12.731 Y31.624 E34.89565
G1 X31.624 Y12.731 E35.80069
G1 X31.624 Y12.155 E35.82020
G1 X12.155 Y31.624 E36.75284
G1 X11.579 Y31.624 E36.77236
G1 X31.624 Y11.579 E37.73260
G1 X31.624 Y11.003 E37.75211
G1 X11.003 Y31.624 E38.73995
G1 X10.427 Y31.624 E38.75946
G1 X31.624 Y10.427 E39.77490
G1 X31.624 Y9.851 E39.79441
G1 X9.851 Y31.624 E40.83745
G1 X9.275 Y31.624 E40.85696
G1 X31.624 Y9.275 E41.92759
G1 X31.624 Y8.699 E41.94711
G1 X8.699 Y31.624 E43.04534
G1 X8.122 Y31.624 E43.06485
G1 X31.624 Y8.122 E44.19068
G1 X31.624 Y7.895 E44.19837
G1 X31.275 Y7.895 E44.21019
G1 X7.895 Y31.275 E45.33018
G1 X7.895 Y30.699 E45.34969
G1 X30.699 Y7.895 E46.44208
G1 X30.123 Y7.895 E46.46159
G1 X7.895 Y30.123 E47.52638
G1 X7.895 Y29.547 E47.54589
G1 X29.547 Y7.895 E48.58308
G1 X28.971 Y7.895 E48.60260
G1 X7.895 Y28.971 E49.61219
G1 X7.895 Y28.395 E49.63170
G1 X28.395 Y7.895 E50.61369
G1 X27.818 Y7.895 E50.63321
G1 X7.895 Y27.818 E51.58760
G1 X7.895 Y27.242 E51.60711
G1 X27.242 Y7.895 E52.53391
G1 X26.666 Y7.895 E52.55342
G1 X7.895 Y26.666 E53.45262
G1 X7.895 Y26.090 E53.47214
G1 X26.090 Y7.895 E54.34374
G1 X25.514 Y7.895 E54.36325
G1 X7.895 Y25.514 E55.20725
G1 X7.895 Y24.938 E55.22677
G1 X24.938 Y7.895 E56.04317
G1 X24.362 Y7.895 E56.06268
G1 X7.895 Y24.362 E56.85149
G1 X7.895 Y23.786 E56.87100
G1 X23.786 Y7.895 E57.63221
G1 X23.210 Y7.895 E57.65172
G1 X7.895 Y23.210 E58.38533
G1 X7.895 Y22.633 E58.40485
G1 X22.633 Y7.895 E59.11086
G1 X22.057 Y7.895 E59.13037
G1 X7.895 Y22.057 E59.80878
G1 X7.895 Y21.481 E59.82830
G1 X21.481 Y7.895 E60.47911
G1 X20.905 Y7.895 E60.49863
G1 X7.895 Y20.905 E61.12184
G1 X7.895 Y20.329 E61.14136
G1 X20.329 Y7.895 E61.73697
G1 X19.753 Y7.895 E61.75649
G1 X7.895 Y19.753 E62.32451
G1 X7.895 Y19.177 E62.34402
G1 X19.177 Y7.895 E62.88444
G1 X18.601 Y7.895 E62.90396
G1 X7.895 Y18.601 E63.41678
G1 X7.895 Y18.024 E63.43629
G1 X18.024 Y7.895 E63.92152
G1 X17.448 Y7.895 E63.94103
G1 X7.895 Y17.448 E64.39866
G1 X7.895 Y16.872 E64.41817
G1 X16.872 Y7.895 E64.84820
G1 X16.296 Y7.895 E64.86772
G1 X7.895 Y16.296 E65.27015
G1 X7.895 Y15.720 E65.28966
G1 X15.720 Y7.895 E65.66449
G1 X15.694 Y7.895 E65.66538
G1 X15.419 Y7.620 E65.67855
G1 X7.620 Y15.419 E66.05213
G1 X7.332 Y15.131 E66.06593
G1 X15.131 Y7.332 E66.43951
G1 X14.843 Y7.044 E66.45331
G1 X7.044 Y14.843 E66.82689
G1 X6.756 Y14.555 E66.84069
G1 X14.555 Y6.756 E67.21427
G1 X14.267 Y6.468 E67.22807
G1 X6.468 Y14.267 E67.60165
G1 X6.180 Y13.979 E67.61545
G1 X13.979 Y6.180 E67.98903
G1 X13.691 Y5.892 E68.00283
G1 X5.892 Y13.691 E68.37641
G1 X5.604 Y13.403 E68.39021
G1 X13.403 Y5.604 E68.76379
G1 X13.114 Y5.316 E68.77759
G1 X5.316 Y13.114 E69.15117
G1 X5.028 Y12.826 E69.16497
G1 X12.826 Y5.028 E69.53855
G1 X12.538 Y4.740 E69.55235
G1 X4.740 Y12.538 E69.92593
G1 X4.452 Y12.250 E69.93973
G1 X12.250 Y4.452 E70.31331
G1 X11.962 Y4.164 E70.32711
G1 X4.164 Y11.962 E70.70069
G1 X3.876 Y11.674 E70.71449
G1 X11.674 Y3.876 E71.08807
G1 X11.386 Y3.588 E71.10187
G1 X3.588 Y11.386 E71.47545
G1 X3.300 Y11.098 E71.48925
G1 X11.098 Y3.300 E71.86283
G1 X10.810 Y3.011 E71.87663
G1 X3.011 Y10.810 E72.25021
G1 X2.723 Y10.522 E72.26401
G1 X10.522 Y2.723 E72.63759
G1 X10.234 Y2.435 E72.65139
G1 X2.435 Y10.234 E73.02497
G1 X2.147 Y9.946 E73.03877
G1 X9.946 Y2.147 E73.41235
G1 X9.658 Y1.859 E73.42615
G1 X1.859 Y9.658 E73.79973
G1 X1.571 Y9.370 E73.81353
G1 X9.370 Y1.571 E74.18711
G1 X9.082 Y1.283 E74.20091
G1 X1.283 Y9.082 E74.57449
G1 X0.995 Y8.794 E74.58829
G1 X8.794 Y0.995 E74.96187
G1 X8.506 Y0.707 E74.97567
G1 X0.707 Y8.506 E75.34925
G1 X0.419 Y8.218 E75.36305
G1 X8.218 Y0.419 E75.73663
G1 X7.929 Y0.131 E75.75043
G1 X0.131 Y7.929 E76.12401
G1 X-0.157 Y7.641 E76.13781
G1 X7.641 Y-0.157 E76.51139
G1 X7.353 Y-0.445 E76.52519
G1 X-0.445 Y7.353 E76.89877
G1 X-0.733 Y7.065 E76.91257
G1 X7.065 Y-0.733 E77.28615
G1 X6.777 Y-1.021 E77.29995
G1 X-1.021 Y6.777 E77.67353
G1 X-1.309 Y6.489 E77.68733
G1 X6.489 Y-1.309 E78.06091
G1 X6.201 Y-1.597 E78.07471
G1 X-1.597 Y6.201 E78.44829
G1 X-1.885 Y5.913 E78.46209
G1 X5.913 Y-1.885 E78.83568
G1 X5.625 Y-2.174 E78.84947
G1 X-2.174 Y5.625 E79.22306
G1 X-2.462 Y5.337 E79.23685
G1 X5.337 Y-2.462 E79.61044
G1 X5.049 Y-2.750 E79.62423
G1 X-2.750 Y5.049 E79.99782
G1 X-3.038 Y4.761 E80.01162
G1 X4.761 Y-3.038 E80.38520
G1 X4.473 Y-3.326 E80.39900
G1 X-3.326 Y4.473 E80.77258
G1 X-3.614 Y4.185 E80.78638
G1 X4.185 Y-3.614 E81.15996
G1 X3.897 Y-3.902 E81.17376
G1 X-3.902 Y3.897 E81.54734
G1 X-4.190 Y3.609 E81.56114
G1 X3.609 Y-4.190 E81.93472
G1 X3.321 Y-4.478 E81.94852
G1 X-4.478 Y3.321 E82.32210
